assets/icons/bowtie/1.22/uE625-diff-image-overlay.svg

<svg xmlns="http://www.w3.org/2000/svg" viewBox="0 0 448 448" enable-background="new 0 0 448 448"><path d="M384 96c0 17.673-14.327 32-32 32s-32-14.327-32-32 14.327-32 32-32 32 14.327 32 32zm-128 224v47.781l-44.813-44.813-38.379 38.402-95.996-95.996-44.812 44.814v-118.188h96v-32h-128v288h288v-128h-32zm192-320v288h-288v-288h288zm-32 32h-224v118.188l44.813-44.813 95.996 95.996 38.379-38.402 44.812 44.812v-175.781z"/></svg>

<svg xmlns="http://www.w3.org/2000/svg" viewBox="0 0 448 448"><path d="M384 96c0 17.673-14.327 32-32 32s-32-14.327-32-32 14.327-32 32-32 32 14.327 32 32zM256 320v47.78l-44.813-44.812-38.38 38.402-95.995-95.996L32 310.188V192h96v-32H0v288h288V320h-32zM448 0v288H160V0h288zm-32 32H192v118.188l44.813-44.813 95.996 95.996 38.376-38.4L416 207.78V32z"/></svg>
